frontend/public/Images/Brand/p2_redline.svg

<svg width="187" height="11" viewBox="0 0 187 11" fill="none" xmlns="http://www.w3.org/2000/svg">
<path d="M0 0.000426292C7.44154 2.41239 15.1465 4.03254 22.8646 5.49434L28.673 6.50541L34.5077 7.3703C38.3931 8.00375 42.318 8.34483 46.2297 8.80773C61.9163 10.501 77.7081 11.0857 93.4737 10.9882C101.35 10.7812 109.239 10.6715 117.102 10.0624C121.027 9.77008 124.965 9.61172 128.877 9.19755C132.789 8.80773 136.7 8.39356 140.612 7.95502L146.473 7.29721C148.423 7.01704 150.372 6.76122 152.308 6.45668L163.951 4.67817C171.682 3.30164 179.361 1.73022 187 0.000426292C179.124 0.390238 171.34 1.16986 163.53 1.71803L151.821 2.49766C149.871 2.61947 147.922 2.77783 145.986 2.9362L140.138 3.24074C136.239 3.42346 132.341 3.63055 128.455 3.862C124.557 4.06909 120.658 4.15436 116.773 4.31272C108.989 4.70253 101.192 4.72689 93.4078 4.9218C77.8135 5.01925 62.2455 4.79998 46.6776 4.08127C42.7922 3.88636 38.8936 3.69146 35.0082 3.41128L29.1735 3.03365L23.3388 2.5342C15.5416 1.91294 7.77081 1.09677 0 0.000426292Z" fill="#E50012"/>
</svg>

<svg width="187" height="11" fill="none" xmlns="http://www.w3.org/2000/svg"><path d="M0 0c7.442 2.412 15.146 4.033 22.865 5.494l5.808 1.011 5.835.865c3.885.634 7.81.975 11.722 1.438 15.686 1.693 31.478 2.278 47.244 2.18 7.876-.207 15.765-.316 23.628-.926 3.925-.292 7.863-.45 11.775-.864 3.912-.39 7.823-.804 11.735-1.243l5.861-.658c1.95-.28 3.899-.536 5.835-.84l11.643-1.779A505.904 505.904 0 00187 0c-7.876.39-15.66 1.17-23.47 1.718l-11.709.78c-1.95.121-3.899.28-5.835.438l-5.848.305c-3.899.182-7.797.39-11.683.621-3.898.207-7.797.292-11.682.45-7.784.39-15.581.415-23.365.61-15.594.097-31.163-.122-46.73-.84-3.886-.196-7.784-.39-11.67-.67l-5.835-.378-5.834-.5C15.542 1.913 7.77 1.097 0 0z" fill="#E50012"/></svg>
